icon-themes/colibre_svg/cmd/ar/lc_defaultnumbering.svg

<svg viewBox="0 0 24 24" xmlns="http://www.w3.org/2000/svg"><path d="m2.5 2c-.277 0-.5.223-.5.5s.223.5.5.5h14c.277 0 .5-.223.5-.5s-.223-.5-.5-.5zm6 3c-.277 0-.5.223-.5.5s.223.5.5.5h8c.277 0 .5-.223.5-.5s-.223-.5-.5-.5zm-6.1074219 5c-.2172433 0-.3925781.175335-.3925781.392578v.214844c0 .217243.1753348.392578.3925781.392578h14.2148439c.217243 0 .392578-.175335.392578-.392578v-.214844c0-.217243-.175335-.392578-.392578-.392578zm6.1074219 3c-.277 0-.5.223-.5.5s.223.5.5.5h8c.277 0 .5-.223.5-.5s-.223-.5-.5-.5zm-6.0644531 5c-.2417883 0-.4355469.193759-.4355469.435547v.128906c0 .241788.1937586.435547.4355469.435547h14.1289061c.241788 0 .435547-.193759.435547-.435547v-.128906c0-.241788-.193759-.435547-.435547-.435547zm6.0644531 3c-.277 0-.5.223-.5.5s.223.5.5.5h8c.277 0 .5-.223.5-.5s-.223-.5-.5-.5z" fill="#808080"/><path d="m19.9375 2-1.9375 1.5605469.369141.46875c.01941.024061.046431.0482056.082031.0722656.038838.021053.082319.0359019.130859.0449219.048544.00902.10123.00902.15625 0 .055016-.009023.109043-.0340669.164063-.0761719l.839844-.671875c-.00976.150376-.013672.2952478-.013672.4335937v3.1679688h-1.248047v1h3.519531v-1h-1v-5zm.152344 8c-.258352 0-.500876.036868-.726563.111328-.225686.071482-.426361.180233-.601562.326172-.172235.142964-.315828.323593-.431641.541016-.115809.214446-.195688.466954-.240234.755859l.570312.097656c.142539.023827.253807.01435.333985-.027343.083147-.041699.147799-.130573.195312-.267579.026729-.089352.064754-.172561.115235-.25.050482-.077442.112324-.144585.183593-.201171.07127-.056586.151147-.101999.240235-.134766.089086-.032767.186064-.048828.292968-.048828.249444 0 .443479.070952.580078.210937.1366.139985.205079.34708.205079.621094 0 .151899-.019987.297515-.058594.4375-.038605.137007-.09662.27315-.173828.410156-.074239.134028-.166454.269244-.279297.40625-.109874.137007-.239257.281695-.384766.433594l-1.71875 1.773437c-.071272.068504-.120697.144193-.15039.22461-.026727.077439-.041016.150247-.041016.21875v.361328h4v-.642578c0-.107222-.036153-.194244-.107422-.259766-.0683-.065526-.158641-.097656-.271484-.097656h-1.339844c-.115813 0-.24137.01133-.375.035156-.133631.020854-.266761.052057-.400391.09375l1.25586-1.318359c.154416-.160834.301837-.32066.441406-.478516.13957-.160834.2613-.323443.365234-.490234.103936-.169769.185687-.346589.248047-.53125.06236-.187639.09375-.389998.09375-.607422 0-.253165-.043725-.484871-.132812-.693359-.086117-.211467-.208784-.392095-.369141-.541016-.157387-.148921-.350485-.263333-.576172-.34375-.222717-.083395-.468988-.125-.742187-.125z" fill="#4d82b8"/></svg>

<svg viewBox="0 0 24 24" xmlns="http://www.w3.org/2000/svg">
  <path
     style="fill:#808080"
     d="M 2.5 2 C 2.223 2 2 2.223 2 2.5 C 2 2.777 2.223 3 2.5 3 L 16.5 3 C 16.777 3 17 2.777 17 2.5 C 17 2.223 16.777 2 16.5 2 L 2.5 2 z M 8.5 5 C 8.223 5 8 5.223 8 5.5 C 8 5.777 8.223 6 8.5 6 L 16.5 6 C 16.777 6 17 5.777 17 5.5 C 17 5.223 16.777 5 16.5 5 L 8.5 5 z M 2.3925781 10 C 2.1753348 10 2 10.175335 2 10.392578 L 2 10.607422 C 2 10.824665 2.1753348 11 2.3925781 11 L 16.607422 11 C 16.824665 11 17 10.824665 17 10.607422 L 17 10.392578 C 17 10.175335 16.824665 10 16.607422 10 L 2.3925781 10 z M 8.5 13 C 8.223 13 8 13.223 8 13.5 C 8 13.777 8.223 14 8.5 14 L 16.5 14 C 16.777 14 17 13.777 17 13.5 C 17 13.223 16.777 13 16.5 13 L 8.5 13 z M 2.4355469 18 C 2.1937586 18 2 18.193759 2 18.435547 L 2 18.564453 C 2 18.806241 2.1937586 19 2.4355469 19 L 16.564453 19 C 16.806241 19 17 18.806241 17 18.564453 L 17 18.435547 C 17 18.193759 16.806241 18 16.564453 18 L 2.4355469 18 z M 8.5 21 C 8.223 21 8 21.223 8 21.5 C 8 21.777 8.223 22 8.5 22 L 16.5 22 C 16.777 22 17 21.777 17 21.5 C 17 21.223 16.777 21 16.5 21 L 8.5 21 z "
     id="rect2" />
  <path
     style="fill:#4d82b8"
     d="M 19.9375 2 L 18 3.5605469 L 18.369141 4.0292969 C 18.388551 4.0533579 18.415572 4.0775025 18.451172 4.1015625 C 18.49001 4.1226155 18.533491 4.1374644 18.582031 4.1464844 C 18.630575 4.1555044 18.683261 4.1555044 18.738281 4.1464844 C 18.793297 4.1374614 18.847324 4.1124175 18.902344 4.0703125 L 19.742188 3.3984375 C 19.732428 3.5488135 19.728516 3.6936853 19.728516 3.8320312 L 19.728516 7 L 18.480469 7 L 18.480469 8 L 22 8 L 22 7 L 21 7 L 21 2 L 19.9375 2 z M 20.089844 10 C 19.831492 10 19.588968 10.036868 19.363281 10.111328 C 19.137595 10.18281 18.93692 10.291561 18.761719 10.4375 C 18.589484 10.580464 18.445891 10.761093 18.330078 10.978516 C 18.214269 11.192962 18.13439 11.44547 18.089844 11.734375 L 18.660156 11.832031 C 18.802695 11.855858 18.913963 11.846381 18.994141 11.804688 C 19.077288 11.762989 19.14194 11.674115 19.189453 11.537109 C 19.216182 11.447757 19.254207 11.364548 19.304688 11.287109 C 19.35517 11.209667 19.417012 11.142524 19.488281 11.085938 C 19.559551 11.029352 19.639428 10.983939 19.728516 10.951172 C 19.817602 10.918405 19.91458 10.902344 20.021484 10.902344 C 20.270928 10.902344 20.464963 10.973296 20.601562 11.113281 C 20.738162 11.253266 20.806641 11.460361 20.806641 11.734375 C 20.806641 11.886274 20.786654 12.03189 20.748047 12.171875 C 20.709442 12.308882 20.651427 12.445025 20.574219 12.582031 C 20.49998 12.716059 20.407765 12.851275 20.294922 12.988281 C 20.185048 13.125288 20.055665 13.269976 19.910156 13.421875 L 18.191406 15.195312 C 18.120134 15.263816 18.070709 15.339505 18.041016 15.419922 C 18.014289 15.497361 18 15.570169 18 15.638672 L 18 16 L 22 16 L 22 15.357422 C 22 15.2502 21.963847 15.163178 21.892578 15.097656 C 21.824278 15.03213 21.733937 15 21.621094 15 L 20.28125 15 C 20.165437 15 20.03988 15.01133 19.90625 15.035156 C 19.772619 15.05601 19.639489 15.087213 19.505859 15.128906 L 20.761719 13.810547 C 20.916135 13.649713 21.063556 13.489887 21.203125 13.332031 C 21.342695 13.171197 21.464425 13.008588 21.568359 12.841797 C 21.672295 12.672028 21.754046 12.495208 21.816406 12.310547 C 21.878766 12.122908 21.910156 11.920549 21.910156 11.703125 C 21.910156 11.44996 21.866431 11.218254 21.777344 11.009766 C 21.691227 10.798299 21.56856 10.617671 21.408203 10.46875 C 21.250816 10.319829 21.057718 10.205417 20.832031 10.125 C 20.609314 10.041605 20.363043 10 20.089844 10 z "
     id="path16" />
</svg>
